svg/blobs-icons/no-decorations/life-jacket.svg

<svg xmlns="http://www.w3.org/2000/svg" xmlns:xlink="http://www.w3.org/1999/xlink" preserveAspectRatio="xMidYMid" width="217" height="210" viewBox="0 0 217 210"><defs><style>.cls-3{fill:#ff3a2f}.cls-4{fill:#020403;opacity:.35}.cls-6{fill:#ededed}.cls-8{fill:#142a3b}</style></defs><g id="group-28svg"><path d="M185.124 60.835s0-60.831.0-60.831-47.74.0-47.74.0C137.462.875 137.517 1.755 137.517 2.648c0 16.068-13.026 29.094-29.093 29.094-16.067.0-29.092-13.026-29.092-29.094C79.332 1.755 79.386.875 79.465.004H37.015s0 60.831.0 60.831c0 18.911-15.472 34.384-34.383 34.384C1.739 95.219.864 95.152-.013 95.084V208.947s216.874.0 216.874.0.0-113.863.0-113.863c-17.684-1.366-31.737-16.231-31.737-34.249z" id="path-1" class="cls-3" fill-rule="evenodd"/><path d="M63.595 5.293C63.517 6.166 63.462 7.045 63.462 7.938c0 16.068 13.026 29.094 29.094 29.094 6.244.0 12.015-1.986 16.755-5.335C109.013 31.707 108.724 31.742 108.424 31.742c-16.067.0-29.092-13.026-29.092-29.094C79.332 1.755 79.386.875 79.465.004H37.015s0 5.289.0 5.289 26.58.0 26.58.0z" id="path-2" class="cls-4" fill-rule="evenodd"/><path d="M185.124 60.835s0-60.831.0-60.831-47.74.0-47.74.0C137.462.875 137.517 1.755 137.517 2.648 137.517 3.541 137.462 4.421 137.384 5.293H149.45c10.938.0 19.805 8.867 19.805 19.805V66.125C169.255 78.137 175.501 88.748 184.905 94.892 195.281 101.671 200.992 113.715 200.992 126.11v82.837s15.869.0 15.869.0.0-113.863.0-113.863c-17.684-1.366-31.737-16.231-31.737-34.249z" id="path-3" class="cls-4" fill-rule="evenodd"/><path d="M216.861 185.144s-216.874.0-216.874.0.0-42.318.0-42.318 216.874.0 216.874.0.0 42.318.0 42.318z" id="path-4" class="cls-6" fill-rule="evenodd"/><path d="M200.992 142.826s0 42.318.0 42.318 15.869.0 15.869.0.0-42.318.0-42.318-15.869.0-15.869.0z" id="path-5" class="cls-4" fill-rule="evenodd"/><path d="M112.038 208.947s-7.229.0-7.229.0.0-177.205.0-177.205 7.229.0 7.229.0.0 177.205.0 177.205z" id="path-6" class="cls-8" fill-rule="evenodd"/><path d="M127.82 167.6s-35.266.0-35.266.0S92.554 160.371 92.554 160.371s35.266.0 35.266.0S127.82 167.6 127.82 167.6z" id="path-7" class="cls-8" fill-rule="evenodd"/></g></svg>

<svg xmlns="http://www.w3.org/2000/svg" xmlns:xlink="http://www.w3.org/1999/xlink" preserveAspectRatio="xMidYMid" width="217" height="210" viewBox="0 0 217 210">
  <defs>
    <style>

      .cls-3 {
        fill: #ff3a2f;
      }

      .cls-4 {
        fill: #020403;
        opacity: 0.35;
      }

      .cls-6 {
        fill: #ededed;
      }

      .cls-8 {
        fill: #142a3b;
      }
    </style>
  </defs>
  <g id="group-28svg">
    <path d="M185.124,60.835 C185.124,60.835 185.124,0.004 185.124,0.004 C185.124,0.004 137.384,0.004 137.384,0.004 C137.462,0.875 137.517,1.755 137.517,2.648 C137.517,18.716 124.491,31.742 108.424,31.742 C92.357,31.742 79.332,18.716 79.332,2.648 C79.332,1.755 79.386,0.875 79.465,0.004 C79.465,0.004 37.015,0.004 37.015,0.004 C37.015,0.004 37.015,60.835 37.015,60.835 C37.015,79.746 21.543,95.219 2.632,95.219 C1.739,95.219 0.864,95.152 -0.013,95.084 C-0.013,95.084 -0.013,208.947 -0.013,208.947 C-0.013,208.947 216.861,208.947 216.861,208.947 C216.861,208.947 216.861,95.084 216.861,95.084 C199.177,93.718 185.124,78.853 185.124,60.835 Z" id="path-1" class="cls-3" fill-rule="evenodd"/>
    <path d="M63.595,5.293 C63.517,6.166 63.462,7.045 63.462,7.938 C63.462,24.006 76.488,37.032 92.556,37.032 C98.800,37.032 104.571,35.046 109.311,31.697 C109.013,31.707 108.724,31.742 108.424,31.742 C92.357,31.742 79.332,18.716 79.332,2.648 C79.332,1.755 79.386,0.875 79.465,0.004 C79.465,0.004 37.015,0.004 37.015,0.004 C37.015,0.004 37.015,5.293 37.015,5.293 C37.015,5.293 63.595,5.293 63.595,5.293 Z" id="path-2" class="cls-4" fill-rule="evenodd"/>
    <path d="M185.124,60.835 C185.124,60.835 185.124,0.004 185.124,0.004 C185.124,0.004 137.384,0.004 137.384,0.004 C137.462,0.875 137.517,1.755 137.517,2.648 C137.517,3.541 137.462,4.421 137.384,5.293 C137.384,5.293 149.450,5.293 149.450,5.293 C160.388,5.293 169.255,14.160 169.255,25.098 C169.255,25.098 169.255,66.125 169.255,66.125 C169.255,78.137 175.501,88.748 184.905,94.892 C195.281,101.671 200.992,113.715 200.992,126.110 C200.992,126.110 200.992,208.947 200.992,208.947 C200.992,208.947 216.861,208.947 216.861,208.947 C216.861,208.947 216.861,95.084 216.861,95.084 C199.177,93.718 185.124,78.853 185.124,60.835 Z" id="path-3" class="cls-4" fill-rule="evenodd"/>
    <path d="M216.861,185.144 C216.861,185.144 -0.013,185.144 -0.013,185.144 C-0.013,185.144 -0.013,142.826 -0.013,142.826 C-0.013,142.826 216.861,142.826 216.861,142.826 C216.861,142.826 216.861,185.144 216.861,185.144 Z" id="path-4" class="cls-6" fill-rule="evenodd"/>
    <path d="M200.992,142.826 C200.992,142.826 200.992,185.144 200.992,185.144 C200.992,185.144 216.861,185.144 216.861,185.144 C216.861,185.144 216.861,142.826 216.861,142.826 C216.861,142.826 200.992,142.826 200.992,142.826 Z" id="path-5" class="cls-4" fill-rule="evenodd"/>
    <path d="M112.038,208.947 C112.038,208.947 104.809,208.947 104.809,208.947 C104.809,208.947 104.809,31.742 104.809,31.742 C104.809,31.742 112.038,31.742 112.038,31.742 C112.038,31.742 112.038,208.947 112.038,208.947 Z" id="path-6" class="cls-8" fill-rule="evenodd"/>
    <path d="M127.820,167.600 C127.820,167.600 92.554,167.600 92.554,167.600 C92.554,167.600 92.554,160.371 92.554,160.371 C92.554,160.371 127.820,160.371 127.820,160.371 C127.820,160.371 127.820,167.600 127.820,167.600 Z" id="path-7" class="cls-8" fill-rule="evenodd"/>
  </g>
</svg>
